X: 8
T: Lamplighter's
R: Reel
M: 4/4
L: 1/8
K: A
cd|"A"!tenuto! e3!tenuto! e !tenuto! eagf|eLc-ce eagf|ecec "F#m"fedc|"Bm".d2B2!tenuto! "E"B2cd|"A"ecec eagf|
ecec eagf|"A/C#"eagf "D"edcB|"E"BAAG "A"A2:|cd|"A"edcd "F#m".e2fe|"Bm"dcBc "E".d2ed|
"A"cAcA "B7" dcBA|"E7"GABc .B2cd|"A"edcd "F#m".e2fe|"Bm"dcBc "E".d2ed|"A"caAc "E7"BdGB|"A"A2A2A2:|]

